storage/app/icons/phosphoricons/light/bowl-food-light.svg

<svg xmlns="http://www.w3.org/2000/svg" fill="currentColor" viewBox="0 0 256 256"><path d="M224 106h-10.23a86 86 0 0 0-171.54 0H32a6 6 0 0 0-6 6 102.35 102.35 0 0 0 56 91.06V208a14 14 0 0 0 14 14h64a14 14 0 0 0 14-14v-4.94A102.35 102.35 0 0 0 230 112a6 6 0 0 0-6-6m-49.76-51.71a74 74 0 0 1 8.15 7.6A85.9 85.9 0 0 0 130.84 106h-33.5A74.24 74.24 0 0 1 168 54c2.08 0 4.17.11 6.24.29m16.06 17.85A73.5 73.5 0 0 1 201.74 106h-57.26a73.9 73.9 0 0 1 45.82-33.86M128 38a73.7 73.7 0 0 1 26.8 5 86.32 86.32 0 0 0-69.94 63h-30.6A74.09 74.09 0 0 1 128 38m37.5 155.84a6 6 0 0 0-3.5 5.46v8.7a2 2 0 0 1-2 2H96a2 2 0 0 1-2-2v-8.7a6 6 0 0 0-3.5-5.46A90.35 90.35 0 0 1 38.2 118h179.6a90.35 90.35 0 0 1-52.3 75.84"/></svg>

<svg xmlns="http://www.w3.org/2000/svg" viewBox="0 0 256 256" fill="currentColor"><path d="M224,106H213.77a86,86,0,0,0-171.54,0H32a6,6,0,0,0-6,6,102.35,102.35,0,0,0,56,91.06V208a14,14,0,0,0,14,14h64a14,14,0,0,0,14-14v-4.94A102.35,102.35,0,0,0,230,112,6,6,0,0,0,224,106ZM174.24,54.29a74.15,74.15,0,0,1,8.15,7.6A85.89,85.89,0,0,0,130.84,106H97.34A74.24,74.24,0,0,1,168,54C170.08,54,172.17,54.11,174.24,54.29ZM190.3,72.14A73.49,73.49,0,0,1,201.74,106H144.48A73.89,73.89,0,0,1,190.3,72.14ZM128,38a73.68,73.68,0,0,1,26.8,5,86.32,86.32,0,0,0-69.94,63H54.26A74.09,74.09,0,0,1,128,38Zm37.5,155.84a6,6,0,0,0-3.5,5.46V208a2,2,0,0,1-2,2H96a2,2,0,0,1-2-2v-8.7a6,6,0,0,0-3.5-5.46A90.35,90.35,0,0,1,38.2,118H217.8A90.35,90.35,0,0,1,165.5,193.84Z"/></svg>
